Origami/64x64/apps/day-of-the-tentacle-remastered.svg

<svg width="64" height="64" version="1" xmlns="http://www.w3.org/2000/svg">
 <path d="m60 58.2s0-53.2-28-53.2-28 53.2-28 53.2c0 1.5512 1.2488 2.8 2.8 2.8h50.4c1.5512 0 2.8-1.2488 2.8-2.8z" style="opacity:.2"/>
 <path d="m60 57.2s0-53.2-28-53.2-28 53.2-28 53.2c0 1.5512 1.2488 2.8 2.8 2.8h50.4c1.5512 0 2.8-1.2488 2.8-2.8z" style="fill:#bb4499"/>
 <path d="M 32 4 C 4 4 4 57.199219 4 57.199219 C 4 57.263409 4.0118373 57.324479 4.0195312 57.386719 C 4.072382 53.068888 5.2444476 5 32 5 C 58.755552 5 59.927618 53.068888 59.980469 57.386719 C 59.988163 57.32448 60 57.263412 60 57.199219 C 60 57.199219 60 4 32 4 z" style="fill:#ffffff;opacity:.2"/>
 <path d="m48 33c0 8.836556-7.163444 16-16 16s-16-7.163444-16-16c0-5.926772 3.222495-11.10089 8.010936-13.865806 2.350914-1.357451 4.900788 2.3281 7.810572 2.3281 3.016104 0 6.015782-3.627751 8.423732-2.176984 4.646844 2.799678 7.75476 7.894238 7.75476 13.71469z" style="opacity:.2"/>
 <path d="m48 32c0 8.836556-7.163444 16-16 16s-16-7.163444-16-16c0-5.926772 3.222495-11.10089 8.010936-13.865805 2.350914-1.357452 4.900788 2.328099 7.810572 2.328099 3.016104 0 6.015782-3.627751 8.423732-2.176985 4.646844 2.799679 7.75476 7.894239 7.75476 13.714691z" style="fill:#69e27d"/>
 <circle cx="32" cy="32" r="10" style="fill:#00a200"/>
 <path d="m10.5 20s5.346051-3.523692 8.9-3.5c4.596032 0.03063 8.003866 6 12.6 6s8.003968-5.969361 12.6-6c3.553948-0.02369 8.9 3.5 8.9 3.5" style="fill:none;opacity:.2;stroke-linecap:round;stroke-linejoin:round;stroke-width:5;stroke:#000000"/>
 <path d="m10.5 19s5.346051-3.523692 8.9-3.5c4.596032 0.03063 8.003866 6 12.6 6s8.003968-5.969361 12.6-6c3.553948-0.02369 8.9 3.5 8.9 3.5" style="fill:none;stroke-linecap:round;stroke-linejoin:round;stroke-width:5;stroke:#3f3f3f"/>
</svg>

<svg xmlns="http://www.w3.org/2000/svg" width="64" height="64" version="1">
 <path style="opacity:0.2" d="M 60,58.2 C 60,58.2 60,5 32,5 4,5 4,58.2 4,58.2 4,59.7512 5.2488,61 6.8,61 l 50.4,0 c 1.5512,0 2.8,-1.2488 2.8,-2.8 z"/>
 <path style="fill:#bb4499" d="M 60,57.2 C 60,57.2 60,4 32,4 4,4 4,57.2 4,57.2 4,58.7512 5.2488,60 6.8,60 l 50.4,0 c 1.5512,0 2.8,-1.2488 2.8,-2.8 z"/>
 <path style="opacity:0.2;fill:#ffffff" d="M 32 4 C 4 4 4 57.199219 4 57.199219 C 4 57.263409 4.0118373 57.324479 4.0195312 57.386719 C 4.072382 53.068888 5.2444476 5 32 5 C 58.755552 5 59.927618 53.068888 59.980469 57.386719 C 59.988163 57.32448 60 57.263412 60 57.199219 C 60 57.199219 60 4 32 4 z"/>
 <path style="opacity:0.2" d="m 48,33 c 0,8.836556 -7.163444,16 -16,16 -8.836556,0 -16,-7.163444 -16,-16 0,-5.926772 3.222495,-11.10089 8.010936,-13.865806 2.350914,-1.357451 4.900788,2.3281 7.810572,2.3281 3.016104,0 6.015782,-3.627751 8.423732,-2.176984 C 44.892084,22.084988 48,27.179548 48,33 Z"/>
 <path style="fill:#69e27d" d="m 48,32 c 0,8.836556 -7.163444,16 -16,16 -8.836556,0 -16,-7.163444 -16,-16 0,-5.926772 3.222495,-11.10089 8.010936,-13.865805 2.350914,-1.357452 4.900788,2.328099 7.810572,2.328099 3.016104,0 6.015782,-3.627751 8.423732,-2.176985 C 44.892084,21.084988 48,26.179548 48,32 Z"/>
 <circle style="fill:#00a200" cx="32" cy="32" r="10"/>
 <path style="opacity:0.2;fill:none;stroke:#000000;stroke-width:5;stroke-linecap:round;stroke-linejoin:round" d="m 10.5,20 c 0,0 5.346051,-3.523692 8.9,-3.5 4.596032,0.03063 8.003866,6 12.6,6 4.596134,0 8.003968,-5.969361 12.6,-6 3.553948,-0.02369 8.9,3.5 8.9,3.5 l 0,0"/>
 <path style="fill:none;stroke:#3f3f3f;stroke-width:5;stroke-linecap:round;stroke-linejoin:round" d="m 10.5,19 c 0,0 5.346051,-3.523692 8.9,-3.5 4.596032,0.03063 8.003866,6 12.6,6 4.596134,0 8.003968,-5.969361 12.6,-6 3.553948,-0.02369 8.9,3.5 8.9,3.5 l 0,0"/>
</svg>
